!!!COM: Claude Goudimel
!!!OMD: Psalm 98: Chantez à Dieu nouveau cantique
**kern	**kern	**kern	**kern
*part4	*part3	*part2	*part1
*staff4	*staff3	*staff2	*staff1
*I"bassus	*I"tenor	*I"contra	*I"superius
*clefC4	*clefC3	*clefC2	*clefG2
!!LO:TX:omd:t=
*M2/2	*M2/2	*M2/2	*M2/2
*met(c|)	*met(c|)	*met(c|)	*met(c|)
=1	=1	=1	=1
1C	1c	1e	1g
=2	=2	=2	=2
2D	2A	2d	2f
2E	2G	2B	2e
=3	=3	=3	=3
2F	2c	2A	2a
2A	2c	2e	2a
=4	=4	=4	=4
2G	2d	2g	2b
2D	2f	2a	[2dd
=5	=5	=5	=5
1A	1e	1a	2dd]
.	.	.	2cc#X
=6	=6	=6	=6
1D	1d	1a	1dd
=7	=7	=7	=7
1r	1r	1r	1r
=8	=8	=8	=8
1C	1g	1cc	1ee
=9	=9	=9	=9
2C	2e	2g	2cc
2C	2e	2g	2cc
=10	=10	=10	=10
2F	2c	2f	2a
2D	2f	2a	[2dd
=11	=11	=11	=11
1E	1e	1g	2dd]
.	.	.	[2cc
=12	=12	=12	=12
1G	1d	1g	2cc]
.	.	.	2b
=13	=13	=13	=13
1C	1c	1e	1cc
=14	=14	=14	=14
1r	1r	1r	1r
=15	=15	=15	=15
1C	1c	1e	1g
=16	=16	=16	=16
2D	2A	2d	2f
2E	2G	2B	2e
=17	=17	=17	=17
2F	2c	2A	2a
2A	2c	2e	2a
=18	=18	=18	=18
2G	2d	2g	2b
2D	2f	2a	2dd
=19	=19	=19	=19
1A	1e	1a	1cc
=20	=20	=20	=20
1D	1d	1f#X	1a
=21	=21	=21	=21
1r	1r	1r	1r
=22	=22	=22	=22
1C	1g	1e	1cc
=23	=23	=23	=23
2F	2f	2c	2a
2C	2e	2c	2g
=24	=24	=24	=24
2G	2d	2B	2g
2A	2c	2c	2e
=25	=25	=25	=25
2G	2c	2d	2g
2G	2B	2d	2g
=26	=26	=26	=26
1C	1c	1e	1g
=27	=27	=27	=27
1r	1r	1r	1r
=28	=28	=28	=28
1c	1g	1e	1cc
=29	=29	=29	=29
2c	2g	2e	2cc
2F	2f	2a	2cc
=30	=30	=30	=30
1c	1e	1g	1cc
=31	=31	=31	=31
2G	1d	2g	2b
2D	.	[2f	[2a
=32	=32	=32	=32
2F	2c	2f]	2a]
2G	2B	2d	[2g
=33	=33	=33	=33
1D	1A	1d	2g]
.	.	.	2f#X
=34	=34	=34	=34
1G	1G	1d	1g
=35	=35	=35	=35
1r	1r	1r	1r
=36	=36	=36	=36
1C	1G	1c	1e
=37	=37	=37	=37
2C	2c	2e	2g
2C	2c	2e	2g
=38	=38	=38	=38
2G	2B	2d	2g
2D	2A	[2d	2f
=39	=39	=39	=39
1A	1c	2d]	1e
.	.	[2c	.
=40	=40	=40	=40
1G	1d	2c]	1g
.	.	2B	.
=41	=41	=41	=41
1C	1e	1c	1g
=42	=42	=42	=42
1r	1r	1r	1r
=43	=43	=43	=43
1c	1c	1e	1g
=44	=44	=44	=44
2A	2c	2e	2a
2G	2d	2g	2b
=45	=45	=45	=45
2c	2e	2g	2cc
2F	2c	2f	2a
=46	=46	=46	=46
2D	2f	2a	2dd
2F	2f	2a	2cc
=47	=47	=47	=47
1C	1e	1g	1cc
=48	=48	=48	=48
[1G	[1d	[1g	[1b
=49	=49	=49	=49
2G]	2d]	2g]	2b]
2r	2r	2r	2r
=50	=50	=50	=50
1C	1g	1e	1cc
=51	=51	=51	=51
2F	2f	2c	2a
2C	2e	2c	2g
=52	=52	=52	=52
2G	2d	2B	2g
2A	2c	2c	2e
=53	=53	=53	=53
2G	2c	2d	2g
2G	2B	2d	2g
=54	=54	=54	=54
1C;	1c;	1e;	1g;
==	==	==	==
*-	*-	*-	*-
!!!software: music21 v.9.7.1
!!!software: music21 v.8.3.0
!!!RDF**kern: > = above
!!!RDF**kern: < = below
